images/icon_phone-2.svg

<svg width="30" height="28" viewBox="0 0 30 28" fill="none" xmlns="http://www.w3.org/2000/svg">
<path d="M23.7891 0.816406H16.7578C13.3658 0.816406 10.6055 3.5767 10.6055 6.96875C10.6055 10.063 12.9015 12.631 15.8789 13.0585V15.7578C15.8789 16.1131 16.0926 16.4342 16.4214 16.5697C16.7456 16.705 17.1258 16.6325 17.3793 16.3792L20.6374 13.1211H23.7891C27.1811 13.1211 30 10.3608 30 6.96875C30 3.5767 27.1811 0.816406 23.7891 0.816406ZM16.7578 7.84754C16.2723 7.84754 15.8789 7.45402 15.8789 6.96863C15.8789 6.48324 16.2723 6.08973 16.7578 6.08973C17.2432 6.08973 17.6367 6.48324 17.6367 6.96863C17.6367 7.45402 17.2432 7.84754 16.7578 7.84754ZM20.2734 7.84754C19.7879 7.84754 19.3945 7.45402 19.3945 6.96863C19.3945 6.48324 19.7879 6.08973 20.2734 6.08973C20.7588 6.08973 21.1523 6.48324 21.1523 6.96863C21.1523 7.45402 20.7588 7.84754 20.2734 7.84754ZM23.7891 7.84754C23.3036 7.84754 22.9102 7.45402 22.9102 6.96863C22.9102 6.48324 23.3036 6.08973 23.7891 6.08973C24.2745 6.08973 24.668 6.48324 24.668 6.96863C24.668 7.45402 24.2745 7.84754 23.7891 7.84754Z" fill="#072EFC"/>
<path d="M19.7461 27.1836C21.2 27.1836 22.3828 26.0008 22.3828 24.5469V21.0312C22.3828 20.6527 22.1408 20.3171 21.782 20.1978L16.5209 18.44C16.2634 18.3533 15.9819 18.3928 15.7553 18.5421L13.5186 20.033C11.1496 18.9035 8.33871 16.0925 7.20914 13.7236L8.7 11.4868C8.85018 11.261 8.88797 10.9787 8.80213 10.7212L7.04432 5.46014C6.92508 5.10143 6.58945 4.85938 6.21094 4.85938H2.63672C1.18277 4.85938 0 6.02979 0 7.48373C0 17.61 9.6198 27.1836 19.7461 27.1836Z" fill="#072EFC"/>
</svg>

<svg width="30" height="28" fill="none" xmlns="http://www.w3.org/2000/svg"><path d="M23.79.816h-7.032a6.16 6.16 0 00-6.152 6.153 6.162 6.162 0 005.273 6.09v2.699a.878.878 0 001.5.621l3.258-3.258h3.152c3.392 0 6.211-2.76 6.211-6.152C30 3.577 27.181.816 23.79.816zm-7.032 7.032a.879.879 0 110-1.758.879.879 0 010 1.758zm3.515 0a.879.879 0 110-1.758.879.879 0 010 1.758zm3.516 0a.879.879 0 110-1.758.879.879 0 010 1.758z" fill="#072EFC"/><path d="M19.746 27.184a2.64 2.64 0 002.637-2.637V21.03a.878.878 0 00-.601-.833l-5.261-1.758a.88.88 0 00-.766.102l-2.236 1.491c-2.37-1.13-5.18-3.94-6.31-6.31L8.7 11.488a.88.88 0 00.102-.766l-1.758-5.26a.878.878 0 00-.833-.602H2.637A2.63 2.63 0 000 7.484c0 10.126 9.62 19.7 19.746 19.7z" fill="#072EFC"/></svg>
